images/TaskLists.svg

<svg width="48" height="42" viewBox="0 0 48 42" fill="none" xmlns="http://www.w3.org/2000/svg">
<path d="M45.0875 7.31858L19.1612 5.85083L0 7.31858V36.2355C0 36.7395 0.408562 37.1479 0.912468 37.1479H44.1751C44.679 37.1479 45.0874 36.7395 45.0874 36.2357V7.31858H45.0875Z" fill="#F6F9F9"/>
<path d="M0.912468 37.1481H44.1752C44.6791 37.1481 45.0875 36.7396 45.0875 36.2358V7.31874L41.2244 7.12158V22.245C41.2244 24.014 39.6593 25.375 37.9078 25.1267C37.5388 25.0744 37.1608 25.0499 36.7761 25.0553C32.8693 25.1102 29.6765 28.3064 29.6255 32.2132C29.6251 32.2406 29.6249 32.268 29.6248 32.2953C29.6215 33.9071 28.3265 35.2167 26.7147 35.2167H0V36.2357C0 36.7395 0.408562 37.1481 0.912468 37.1481Z" fill="#E7ECF1"/>
<path d="M40.7779 25.2551V27.8471C40.7779 27.9473 40.6967 28.0285 40.5965 28.0285H36.9159C36.8157 28.0285 36.7344 27.9473 36.7344 27.8471V25.2551C36.7344 25.1549 36.8157 25.0737 36.9159 25.0737H40.5965C40.6966 25.0736 40.7779 25.1549 40.7779 25.2551ZM40.7779 20.9394C40.7779 20.8392 40.6967 20.758 40.5965 20.758H36.9159C36.8157 20.758 36.7344 20.8392 36.7344 20.9394V23.5314C36.7344 23.6316 36.8157 23.7128 36.9159 23.7128H40.5965C40.6967 23.7128 40.7779 23.6316 40.7779 23.5314V20.9394ZM40.7779 16.6237C40.7779 16.5235 40.6967 16.4423 40.5965 16.4423H36.9159C36.8157 16.4423 36.7344 16.5236 36.7344 16.6237V19.2157C36.7344 19.3159 36.8157 19.3971 36.9159 19.3971H40.5965C40.6967 19.3971 40.7779 19.3159 40.7779 19.2157V16.6237ZM40.7779 12.3081C40.7779 12.2079 40.6967 12.1267 40.5965 12.1267H36.9159C36.8157 12.1267 36.7344 12.208 36.7344 12.3081V14.9001C36.7344 15.0003 36.8157 15.0815 36.9159 15.0815H40.5965C40.6967 15.0815 40.7779 15.0003 40.7779 14.9001V12.3081Z" fill="#DA4A54"/>
<path d="M36.9159 28.0283H40.5965C40.6967 28.0283 40.7779 27.9471 40.7779 27.8469V25.2549C40.7779 25.1547 40.6967 25.0735 40.5965 25.0735H39.0047C38.657 25.1584 38.2865 25.1802 37.9073 25.1264C37.7441 25.1032 37.5792 25.0856 37.4127 25.0735H36.9159C36.8157 25.0735 36.7344 25.1547 36.7344 25.2549V27.8469C36.7345 27.947 36.8158 28.0283 36.9159 28.0283Z" fill="#D82E3D"/>
<path d="M29.9695 19.2158C29.9695 19.316 29.8882 19.3972 29.788 19.3972H26.1074C26.0071 19.3972 25.926 19.316 25.926 19.2158V16.6238C25.926 16.5236 26.0071 16.4424 26.1074 16.4424H29.788C29.8882 16.4424 29.9695 16.5237 29.9695 16.6238V19.2158ZM29.9695 12.3082C29.9695 12.208 29.8882 12.1268 29.788 12.1268H26.1074C26.0071 12.1268 25.926 12.2081 25.926 12.3082V14.9002C25.926 15.0004 26.0071 15.0816 26.1074 15.0816H29.788C29.8882 15.0816 29.9695 15.0004 29.9695 14.9002V12.3082ZM29.7881 25.0737H26.1075C26.0072 25.0737 25.9261 25.1549 25.9261 25.2551V27.8471C25.9261 27.9473 26.0072 28.0285 26.1075 28.0285H29.7881C29.8883 28.0285 29.9696 27.9473 29.9696 27.8471V25.2552C29.9695 25.155 29.8883 25.0737 29.7881 25.0737V25.0737ZM9.87672 15.0816H13.5752C13.6755 15.0816 13.7567 15.0004 13.7567 14.9002V12.3082C13.7567 12.208 13.6755 12.1268 13.5752 12.1268H9.87672C9.7765 12.1268 9.69531 12.2081 9.69531 12.3082V14.9002C9.69531 15.0003 9.7765 15.0816 9.87672 15.0816ZM9.69531 19.2158C9.69531 19.316 9.7765 19.3972 9.87672 19.3972H13.5752C13.6755 19.3972 13.7567 19.316 13.7567 19.2158V16.6238C13.7567 16.5236 13.6755 16.4424 13.5752 16.4424H9.87672C9.7765 16.4424 9.69531 16.5237 9.69531 16.6238V19.2158ZM29.9695 20.9395C29.9695 20.8393 29.8882 20.7581 29.788 20.7581H26.1074C26.0071 20.7581 25.926 20.8393 25.926 20.9395V23.5315C25.926 23.6317 26.0071 23.7129 26.1074 23.7129H29.788C29.8882 23.7129 29.9695 23.6317 29.9695 23.5315V20.9395ZM9.69531 23.5315C9.69531 23.6317 9.7765 23.7129 9.87672 23.7129H13.5752C13.6755 23.7129 13.7567 23.6317 13.7567 23.5315V20.9395C13.7567 20.8393 13.6755 20.7581 13.5752 20.7581H9.87672C9.7765 20.7581 9.69531 20.8393 9.69531 20.9395V23.5315ZM35.1924 25.0737H31.5118C31.4116 25.0737 31.3304 25.1549 31.3304 25.2551V27.8471C31.3304 27.9473 31.4116 28.0285 31.5118 28.0285H35.1924C35.2926 28.0285 35.3738 27.9473 35.3738 27.8471V25.2552C35.3738 25.155 35.2926 25.0737 35.1924 25.0737V25.0737ZM35.3738 20.9395C35.3738 20.8393 35.2926 20.7581 35.1924 20.7581H31.5118C31.4116 20.7581 31.3304 20.8393 31.3304 20.9395V23.5315C31.3304 23.6317 31.4116 23.7129 31.5118 23.7129H35.1924C35.2926 23.7129 35.3738 23.6317 35.3738 23.5315V20.9395ZM35.3738 16.6238C35.3738 16.5236 35.2926 16.4424 35.1924 16.4424H31.5118C31.4116 16.4424 31.3304 16.5237 31.3304 16.6238V19.2158C31.3304 19.316 31.4116 19.3972 31.5118 19.3972H35.1924C35.2926 19.3972 35.3738 19.316 35.3738 19.2158V16.6238ZM35.3738 12.3082C35.3738 12.208 35.2926 12.1268 35.1924 12.1268H31.5118C31.4116 12.1268 31.3304 12.2081 31.3304 12.3082V14.9002C31.3304 15.0004 31.4116 15.0816 31.5118 15.0816H35.1924C35.2926 15.0816 35.3738 15.0004 35.3738 14.9002V12.3082ZM9.69531 32.1585C9.69531 32.2587 9.7765 32.3399 9.87672 32.3399H13.5752C13.6755 32.3399 13.7567 32.2587 13.7567 32.1585V29.5708C13.7567 29.4705 13.6755 29.3894 13.5752 29.3894H9.87672C9.7765 29.3894 9.69531 29.4705 9.69531 29.5708V32.1585ZM20.5217 27.8471C20.5217 27.9473 20.603 28.0285 20.7032 28.0285H24.3838C24.484 28.0285 24.5652 27.9473 24.5652 27.8471V25.2552C24.5652 25.155 24.4839 25.0738 24.3838 25.0738H20.7032C20.6029 25.0738 20.5217 25.155 20.5217 25.2552V27.8471ZM20.7032 19.3972H24.3839C24.4841 19.3972 24.5653 19.316 24.5653 19.2158V16.6238C24.5653 16.5236 24.484 16.4424 24.3839 16.4424H20.7032C20.603 16.4424 20.5218 16.5237 20.5218 16.6238V19.2158C20.5217 19.316 20.603 19.3972 20.7032 19.3972ZM20.5217 23.5315C20.5217 23.6317 20.603 23.7129 20.7032 23.7129H24.3838C24.484 23.7129 24.5652 23.6317 24.5652 23.5315V20.9395C24.5652 20.8393 24.4839 20.7581 24.3838 20.7581H20.7032C20.6029 20.7581 20.5217 20.8393 20.5217 20.9395V23.5315ZM20.5217 32.1585C20.5217 32.2587 20.603 32.3399 20.7032 32.3399H24.3838C24.484 32.3399 24.5652 32.2587 24.5652 32.1585V29.5708C24.5652 29.4705 24.4839 29.3894 24.3838 29.3894H20.7032C20.6029 29.3894 20.5217 29.4705 20.5217 29.5708V32.1585ZM24.3838 12.1267H20.7032C20.6029 12.1267 20.5217 12.208 20.5217 12.3081V14.9001C20.5217 15.0003 20.603 15.0815 20.7032 15.0815H24.3838C24.484 15.0815 24.5652 15.0003 24.5652 14.9001V12.3081C24.5653 12.208 24.484 12.1267 24.3838 12.1267ZM9.69531 27.8471C9.69531 27.9473 9.7765 28.0285 9.87672 28.0285H13.5752C13.6755 28.0285 13.7567 27.9473 13.7567 27.8471V25.2552C13.7567 25.155 13.6755 25.0738 13.5752 25.0738H9.87672C9.7765 25.0738 9.69531 25.155 9.69531 25.2552V27.8471ZM15.1175 32.1585C15.1175 32.2587 15.1987 32.3399 15.2989 32.3399H18.9796C19.0798 32.3399 19.161 32.2587 19.161 32.1585V29.5708C19.161 29.4705 19.0798 29.3894 18.9796 29.3894H15.2989C15.1987 29.3894 15.1175 29.4705 15.1175 29.5708V32.1585ZM15.1175 19.2158C15.1175 19.316 15.1987 19.3972 15.2989 19.3972H18.9796C19.0798 19.3972 19.161 19.316 19.161 19.2158V16.6238C19.161 16.5236 19.0798 16.4424 18.9796 16.4424H15.2989C15.1987 16.4424 15.1175 16.5237 15.1175 16.6238V19.2158ZM15.2989 15.0816H18.9796C19.0798 15.0816 19.161 15.0004 19.161 14.9002V12.3082C19.161 12.208 19.0798 12.1268 18.9796 12.1268H15.2989C15.1987 12.1268 15.1175 12.2081 15.1175 12.3082V14.9002C15.1175 15.0003 15.1987 15.0816 15.2989 15.0816ZM15.1175 23.5315C15.1175 23.6317 15.1987 23.7129 15.2989 23.7129H18.9796C19.0798 23.7129 19.161 23.6317 19.161 23.5315V20.9395C19.161 20.8393 19.0798 20.7581 18.9796 20.7581H15.2989C15.1987 20.7581 15.1175 20.8393 15.1175 20.9395V23.5315ZM15.1175 27.8471C15.1175 27.9473 15.1987 28.0285 15.2989 28.0285H18.9796C19.0798 28.0285 19.161 27.9473 19.161 27.8471V25.2552C19.161 25.155 19.0798 25.0738 18.9796 25.0738H15.2989C15.1987 25.0738 15.1175 25.155 15.1175 25.2552V27.8471Z" fill="#DAE4EA"/>
<path d="M31.3302 27.8469C31.3302 27.9471 31.4114 28.0283 31.5116 28.0283H35.1922C35.2924 28.0283 35.3736 27.9471 35.3736 27.8469V25.255C35.3736 25.2409 35.3719 25.2271 35.3688 25.2139C33.7656 25.5576 32.3532 26.4366 31.3301 27.6522V27.8469H31.3302Z" fill="#C6D0DA"/>
<path d="M44.1748 1.98682H0.912656C0.408562 1.98682 0 2.39547 0 2.89947V7.31838H45.0875V2.89947C45.0875 2.39547 44.6788 1.98682 44.1748 1.98682V1.98682Z" fill="#61A2F9"/>
<path d="M4.30859 19.2158V16.6238C4.30859 16.5236 4.38978 16.4424 4.49 16.4424H8.15262C8.25284 16.4424 8.33403 16.5237 8.33403 16.6238V19.2158C8.33403 19.316 8.25275 19.3972 8.15262 19.3972H4.49009C4.38988 19.3972 4.30859 19.316 4.30859 19.2158ZM4.30859 23.5315C4.30859 23.6317 4.38978 23.7129 4.49 23.7129H8.15262C8.25284 23.7129 8.33403 23.6317 8.33403 23.5315V20.9395C8.33403 20.8393 8.25275 20.7581 8.15262 20.7581H4.49009C4.38988 20.7581 4.30869 20.8393 4.30869 20.9395V23.5315H4.30859ZM4.30859 32.1584C4.30859 32.2587 4.38978 32.3398 4.49 32.3398H8.15262C8.25284 32.3398 8.33403 32.2587 8.33403 32.1584V29.5708C8.33403 29.4705 8.25275 29.3893 8.15262 29.3893H4.49009C4.38988 29.3893 4.30869 29.4705 4.30869 29.5708V32.1584H4.30859ZM4.30859 27.8471C4.30859 27.9473 4.38978 28.0285 4.49 28.0285H8.15262C8.25284 28.0285 8.33403 27.9473 8.33403 27.8471V25.2552C8.33403 25.1549 8.25275 25.0738 8.15262 25.0738H4.49009C4.38988 25.0738 4.30869 25.1549 4.30869 25.2552V27.8471H4.30859Z" fill="#DA4A54"/>
<path d="M5.02776 4.88137H3.87998C3.37777 4.88137 2.9707 4.47422 2.9707 3.97209V0.909281C2.9707 0.407062 3.37786 0 3.87998 0H5.02776C5.52998 0 5.93705 0.407156 5.93705 0.909281V3.972C5.93705 4.47422 5.52998 4.88137 5.02776 4.88137Z" fill="white"/>
<path d="M10.982 4.88137H9.92491C9.42269 4.88137 9.01562 4.47422 9.01562 3.97209V0.909281C9.01562 0.407062 9.42278 0 9.92491 0H10.9819C11.4842 0 11.8912 0.407156 11.8912 0.909281V3.972C11.8913 4.47422 11.4842 4.88137 10.982 4.88137Z" fill="white"/>
<path d="M17.0269 4.88137H15.9698C15.4676 4.88137 15.0605 4.47422 15.0605 3.97209V0.909281C15.0605 0.407062 15.4676 0 15.9698 0H17.0269C17.5291 0 17.9361 0.407156 17.9361 0.909281V3.972C17.9361 4.47422 17.5291 4.88137 17.0269 4.88137Z" fill="white"/>
<path d="M23.0737 4.88137H22.0167C21.5145 4.88137 21.1074 4.47422 21.1074 3.97209V0.909281C21.1074 0.407062 21.5146 0 22.0167 0H23.0737C23.576 0 23.983 0.407156 23.983 0.909281V3.972C23.983 4.47422 23.576 4.88137 23.0737 4.88137Z" fill="white"/>
<path d="M29.1187 4.88137H28.0616C27.5594 4.88137 27.1523 4.47422 27.1523 3.97209V0.909281C27.1523 0.407062 27.5594 0 28.0616 0H29.1187C29.6209 0 30.0279 0.407156 30.0279 0.909281V3.972C30.028 4.47422 29.6209 4.88137 29.1187 4.88137Z" fill="white"/>
<path d="M35.1636 4.88137H34.1065C33.6043 4.88137 33.1973 4.47422 33.1973 3.97209V0.909281C33.1973 0.407062 33.6044 0 34.1065 0H35.1636C35.6658 0 36.0729 0.407156 36.0729 0.909281V3.972C36.073 4.47422 35.6658 4.88137 35.1636 4.88137Z" fill="white"/>
<path d="M44.1751 1.98706H42.118L41.5728 3.42678C41.5728 3.92365 41.2246 4.88112 41.2246 4.88112V7.31853H45.0877V2.89962C45.0878 2.39562 44.6791 1.98706 44.1751 1.98706V1.98706Z" fill="#5490F9"/>
<path d="M41.2085 4.88137H40.1515C39.6493 4.88137 39.2422 4.47422 39.2422 3.97209V0.909281C39.2422 0.407062 39.6493 0 40.1515 0H41.2085C41.7107 0 42.1178 0.407156 42.1178 0.909281V3.972C42.1178 4.47422 41.7106 4.88137 41.2085 4.88137Z" fill="white"/>
<path d="M40.7439 41.4973C44.751 41.4973 47.9995 38.2488 47.9995 34.2417C47.9995 30.2345 44.751 26.9861 40.7439 26.9861C36.7367 26.9861 33.4883 30.2345 33.4883 34.2417C33.4883 38.2488 36.7367 41.4973 40.7439 41.4973Z" fill="#80E29D"/>
<path d="M41.9095 27.0789C43.2827 28.399 44.1372 30.2546 44.1372 32.3098C44.1372 36.317 40.8888 39.5654 36.8816 39.5654C36.4852 39.5654 36.0961 39.5335 35.7168 39.4724C37.021 40.7262 38.7927 41.497 40.7447 41.497C44.7519 41.497 48.0003 38.2486 48.0003 34.2414C48.0003 30.6308 45.3629 27.6362 41.9095 27.0789V27.0789Z" fill="#78D090"/>
<path d="M44.8619 32.6831L43.4908 31.3119C43.3467 31.1678 43.113 31.1678 42.9689 31.3119L40.3164 33.9645C40.1723 34.1086 39.9387 34.1086 39.7946 33.9645L38.5206 32.6905C38.3765 32.5464 38.1429 32.5464 37.9988 32.6905L36.6276 34.0617C36.4835 34.2058 36.4835 34.4394 36.6276 34.5835L39.7946 37.7505C39.9387 37.8946 40.1723 37.8946 40.3164 37.7505L44.8619 33.2049C45.006 33.0608 45.006 32.8272 44.8619 32.6831V32.6831Z" fill="#F6F9F9"/>
<path d="M44.1284 31.9497C44.1342 32.0691 44.1372 32.1892 44.1372 32.31C44.1372 32.9531 44.0535 33.5766 43.8965 34.1704L44.8618 33.205C45.0059 33.0609 45.0059 32.8273 44.8618 32.6832L44.1284 31.9497Z" fill="#E7ECF1"/>
</svg>

<svg xmlns="http://www.w3.org/2000/svg" width="48" height="42" fill="none"><path fill="#F6F9F9" d="M45.088 7.319 19.16 5.85 0 7.319v28.917c0 .504.409.912.912.912h43.263a.91.91 0 0 0 .912-.912z"/><path fill="#E7ECF1" d="M.912 37.148h43.263a.91.91 0 0 0 .913-.912V7.319l-3.864-.197v15.123a2.91 2.91 0 0 1-3.316 2.882 7.3 7.3 0 0 0-1.132-.072c-3.907.055-7.1 3.251-7.15 7.158l-.001.082a2.916 2.916 0 0 1-2.91 2.922H0v1.019c0 .504.409.912.912.912"/><path fill="#DA4A54" d="M40.778 25.255v2.592c0 .1-.081.181-.181.181h-3.681a.18.18 0 0 1-.182-.18v-2.593c0-.1.082-.181.182-.181h3.68c.1 0 .182.08.182.181m0-4.316c0-.1-.081-.181-.181-.181h-3.681c-.1 0-.182.081-.182.181v2.592c0 .1.082.182.182.182h3.68c.1 0 .182-.081.182-.182zm0-4.315c0-.1-.081-.182-.181-.182h-3.681c-.1 0-.182.082-.182.182v2.592c0 .1.082.181.182.181h3.68c.1 0 .182-.081.182-.181zm0-4.316c0-.1-.081-.181-.181-.181h-3.681c-.1 0-.182.081-.182.181V14.9c0 .1.082.181.182.181h3.68c.1 0 .182-.08.182-.18z"/><path fill="#D82E3D" d="M36.916 28.028h3.68c.1 0 .182-.08.182-.181v-2.592c0-.1-.081-.181-.181-.181h-1.592a2.9 2.9 0 0 1-1.098.052 7 7 0 0 0-.494-.053h-.497c-.1 0-.182.082-.182.182v2.592c0 .1.082.181.182.181"/><path fill="#DAE4EA" d="M29.97 19.216c0 .1-.082.181-.182.181h-3.68a.18.18 0 0 1-.182-.181v-2.592c0-.1.081-.182.181-.182h3.681c.1 0 .181.082.181.182zm0-6.908c0-.1-.082-.181-.182-.181h-3.68c-.1 0-.182.081-.182.181V14.9c0 .1.081.182.181.182h3.681c.1 0 .181-.082.181-.182zm-.182 12.766h-3.68c-.1 0-.182.08-.182.181v2.592c0 .1.081.181.182.181h3.68c.1 0 .182-.08.182-.18v-2.593c0-.1-.082-.181-.182-.181M9.877 15.082h3.698c.1 0 .182-.082.182-.182v-2.592c0-.1-.082-.181-.182-.181H9.877c-.1 0-.182.081-.182.181V14.9c0 .1.082.182.182.182m-.182 4.134c0 .1.082.181.182.181h3.698c.1 0 .182-.081.182-.181v-2.592c0-.1-.082-.182-.182-.182H9.877c-.1 0-.182.082-.182.182zm20.275 1.723c0-.1-.082-.18-.182-.18h-3.68c-.1 0-.182.08-.182.18v2.593c0 .1.081.18.181.18h3.681c.1 0 .181-.08.181-.18zM9.695 23.533c0 .1.082.18.182.18h3.698c.1 0 .182-.08.182-.18v-2.593c0-.1-.082-.18-.182-.18H9.877c-.1 0-.182.08-.182.18zm25.497 1.542h-3.68c-.1 0-.182.08-.182.181v2.592c0 .1.082.181.182.181h3.68c.1 0 .182-.08.182-.18v-2.593c0-.1-.081-.181-.182-.181m.182-4.135c0-.1-.081-.18-.182-.18h-3.68c-.1 0-.182.08-.182.18v2.593c0 .1.082.18.182.18h3.68c.1 0 .182-.08.182-.18zm0-4.315c0-.1-.081-.182-.182-.182h-3.68c-.1 0-.182.082-.182.182v2.592c0 .1.082.181.182.181h3.68c.1 0 .182-.081.182-.181zm0-4.316c0-.1-.081-.181-.182-.181h-3.68c-.1 0-.182.081-.182.181V14.9c0 .1.082.182.182.182h3.68c.1 0 .182-.082.182-.182zM9.695 32.158c0 .1.082.182.182.182h3.698c.1 0 .182-.081.182-.182v-2.587c0-.1-.082-.182-.182-.182H9.877c-.1 0-.182.082-.182.182zm10.827-4.31c0 .1.081.18.181.18h3.68c.101 0 .182-.08.182-.18v-2.593c0-.1-.081-.181-.181-.181h-3.68c-.101 0-.182.081-.182.181zm.181-8.45h3.68c.101 0 .182-.082.182-.182v-2.592c0-.1-.081-.182-.181-.182h-3.68c-.101 0-.182.082-.182.182v2.592c0 .1.081.181.181.181m-.181 4.134c0 .1.081.18.181.18h3.68c.101 0 .182-.08.182-.18v-2.593c0-.1-.081-.18-.181-.18h-3.68c-.101 0-.182.08-.182.18zm0 8.626c0 .1.081.182.181.182h3.68c.101 0 .182-.081.182-.182v-2.587c0-.1-.081-.182-.181-.182h-3.68c-.101 0-.182.082-.182.182zm3.862-20.031h-3.68c-.101 0-.182.081-.182.181V14.9c0 .1.081.181.181.181h3.68c.101 0 .182-.08.182-.18v-2.593c0-.1-.081-.181-.181-.181M9.695 27.847c0 .1.082.181.182.181h3.698c.1 0 .182-.08.182-.18v-2.593c0-.1-.082-.181-.182-.181H9.877c-.1 0-.182.081-.182.181zm5.422 4.311c0 .1.082.182.182.182h3.68c.1 0 .182-.081.182-.182v-2.587c0-.1-.081-.182-.181-.182h-3.681c-.1 0-.181.082-.181.182zm0-12.942c0 .1.082.181.182.181h3.68c.1 0 .182-.081.182-.181v-2.592c0-.1-.081-.182-.181-.182h-3.681c-.1 0-.181.082-.181.182zm.182-4.134h3.68c.1 0 .182-.082.182-.182v-2.592c0-.1-.081-.181-.181-.181h-3.681c-.1 0-.181.081-.181.181V14.9c0 .1.08.182.18.182m-.181 8.45c0 .1.08.18.18.18h3.682c.1 0 .181-.08.181-.18v-2.593c0-.1-.081-.18-.181-.18h-3.681c-.1 0-.181.08-.181.18zm0 4.315c0 .1.08.181.18.181h3.682c.1 0 .181-.08.181-.18v-2.593c0-.1-.081-.181-.181-.181h-3.681c-.1 0-.181.081-.181.181z"/><path fill="#C6D0DA" d="M31.33 27.847c0 .1.081.181.182.181h3.68c.1 0 .182-.08.182-.181v-2.592a.2.2 0 0 0-.005-.041 7.3 7.3 0 0 0-4.039 2.438z"/><path fill="#61A2F9" d="M44.175 1.987H.913A.913.913 0 0 0 0 2.899v4.42h45.088v-4.42a.913.913 0 0 0-.913-.912"/><path fill="#DA4A54" d="M4.309 19.216v-2.592c0-.1.08-.182.181-.182h3.663c.1 0 .181.082.181.182v2.592c0 .1-.081.181-.181.181H4.49a.18.18 0 0 1-.181-.181m0 4.316c0 .1.08.18.181.18h3.663c.1 0 .181-.08.181-.18v-2.593c0-.1-.081-.18-.181-.18H4.49c-.1 0-.181.08-.181.18zm0 8.626c0 .1.08.182.181.182h3.663c.1 0 .181-.081.181-.182v-2.587c0-.1-.081-.182-.181-.182H4.49c-.1 0-.181.082-.181.182zm0-4.31c0 .1.08.18.181.18h3.663c.1 0 .181-.08.181-.18v-2.593c0-.1-.081-.181-.181-.181H4.49c-.1 0-.181.08-.181.181z"/><path fill="#fff" d="M5.028 4.881H3.88a.91.91 0 0 1-.91-.909V.91A.91.91 0 0 1 3.88 0h1.148a.91.91 0 0 1 .91.91v3.062a.91.91 0 0 1-.91.91M10.982 4.881H9.925a.91.91 0 0 1-.91-.909V.91A.91.91 0 0 1 9.926 0h1.057a.91.91 0 0 1 .91.91v3.062a.91.91 0 0 1-.91.91M17.027 4.881H15.97a.91.91 0 0 1-.91-.909V.91A.91.91 0 0 1 15.97 0h1.057a.91.91 0 0 1 .91.91v3.062a.91.91 0 0 1-.91.91M23.074 4.881h-1.057a.91.91 0 0 1-.91-.909V.91a.91.91 0 0 1 .91-.909h1.057a.91.91 0 0 1 .909.91v3.062a.91.91 0 0 1-.91.91M29.119 4.881h-1.057a.91.91 0 0 1-.91-.909V.91a.91.91 0 0 1 .91-.909h1.057a.91.91 0 0 1 .909.91v3.062a.91.91 0 0 1-.91.91M35.164 4.881h-1.058a.91.91 0 0 1-.909-.909V.91a.91.91 0 0 1 .91-.909h1.057a.91.91 0 0 1 .909.91v3.062a.91.91 0 0 1-.91.91"/><path fill="#5490F9" d="M44.175 1.987h-2.057l-.545 1.44c0 .497-.348 1.454-.348 1.454V7.32h3.863v-4.42a.913.913 0 0 0-.913-.912"/><path fill="#fff" d="M41.209 4.881H40.15a.91.91 0 0 1-.909-.909V.91a.91.91 0 0 1 .91-.909h1.056a.91.91 0 0 1 .91.91v3.062a.91.91 0 0 1-.91.91"/><path fill="#80E29D" d="M40.744 41.497a7.256 7.256 0 1 0 0-14.511 7.256 7.256 0 0 0 0 14.511"/><path fill="#78D090" d="M41.91 27.079a7.256 7.256 0 0 1-6.193 12.394A7.256 7.256 0 1 0 41.91 27.08"/><path fill="#F6F9F9" d="m44.862 32.683-1.371-1.371a.37.37 0 0 0-.522 0l-2.653 2.653a.37.37 0 0 1-.521 0L38.52 32.69a.37.37 0 0 0-.522 0l-1.371 1.372a.37.37 0 0 0 0 .522l3.167 3.166a.37.37 0 0 0 .521 0l4.546-4.545a.37.37 0 0 0 0-.522"/><path fill="#E7ECF1" d="M44.128 31.95q.01.18.01.36c0 .643-.084 1.267-.241 1.86l.965-.965a.37.37 0 0 0 0-.522z"/></svg>
